public/static/icons/navbar/ic_page.svg

<svg xmlns="http://www.w3.org/2000/svg" width="24" height="24" viewBox="0 0 24 24">
  <path d="M15.74,5.33 L11.3,0.33 C11.1109408,0.120520558 10.8421782,0.000666963756 10.56,-0.000180200686 L2.56,-0.000180200686 C1.88898838,-0.00800384008 1.24228504,0.250902875 0.762181568,0.719753926 C0.282078092,1.18860498 0.00790949226,1.82898726 0,2.5 L0,17.5 C0.00790949226,18.1710127 0.282078092,18.811395 0.762181568,19.2802461 C1.24228504,19.7490971 1.88898838,20.0080038 2.56,20.0001802 L13.44,20.0001802 C14.1110116,20.0080038 14.757715,19.7490971 15.2378184,19.2802461 C15.7179219,18.811395 15.9920905,18.1710127 16,17.5 L16,6 C15.999353,5.75216417 15.9066976,5.5133983 15.74,5.33 Z M10.5537433,2.59223879 L13.2364558,5.46145004 C13.3571576,5.59054289 13.3503553,5.79304146 13.2212625,5.91374327 C13.1619853,5.96916748 13.0838644,6 13.0027125,6 L10.74,6 L10.74,6 C10.5284614,5.9872289 10.330924,5.8900018 10.1917711,5.73016398 C10.0526182,5.57032615 9.98351937,5.36128194 10,5.15 L10,2.81078875 C10,2.63405763 10.1432689,2.49078875 10.32,2.49078875 C10.4085991,2.49078875 10.4932329,2.5275218 10.5537433,2.59223879 Z" transform="translate(4 2)"/>
</svg>

<svg height="24" viewBox="0 0 24 24" width="24" xmlns="http://www.w3.org/2000/svg"><path d="m15.74 5.33-4.44-5c-.1890592-.20947944-.4578218-.32933304-.74-.3301802h-8c-.67101162-.00782364-1.31771496.25108308-1.79781843.71993413-.48010348.46885105-.75427208 1.10923333-.76218157 1.78024607v15c.00790949.6710127.28207809 1.311395.76218157 1.7802461.48010347.468851 1.12680681.7277577 1.79781843.7199341h10.88c.6710116.0078236 1.317715-.2510831 1.7978184-.7199341.4801035-.4688511.7542721-1.1092334.7621816-1.7802461v-11.5c-.000647-.24783583-.0933024-.4866017-.26-.67zm-5.1862567-2.73776121 2.6827125 2.86921125c.1207018.12909285.1138995.33159142-.0151933.45229323-.0592772.05542421-.1373981.08625673-.21855.08625673h-2.2627125c-.2115386-.0127711-.409076-.1099982-.5482289-.26983602-.1391529-.15983783-.20825173-.36888204-.1917711-.58016398v-2.33921125c0-.17673112.1432689-.32.32-.32.0885991 0 .1732329.03673305.2337433.10145004z" transform="translate(4 2)"/></svg>
